fa/code-commit.svg

<svg xmlns="http://www.w3.org/2000/svg" viewBox="0 0 640 512" height="1em" width="1em">
  <path d="M476.8 288c-15.7 73-79.4 128-156.8 128s-142-55-156.8-128H32c-17.67 0-32-14.3-32-32s14.33-32 32-32h131.2C178 150.1 242.6 96 320 96s141.1 54.1 156.8 128H608c17.7 0 32 14.3 32 32s-14.3 32-32 32H476.8zM320 336c44.2 0 80-35.8 80-80s-35.8-80-80-80-80 35.8-80 80 35.8 80 80 80z"/>
</svg>

<svg xmlns="http://www.w3.org/2000/svg" viewBox="0 0 640 512" height="1em" width="1em">
  <path d="M476.8 288C461.1 361 397.4 416 320 416C242.6 416 178 361 163.2 288H32C14.33 288 0 273.7 0 256C0 238.3 14.33 224 32 224H163.2C178 150.1 242.6 96 320 96C397.4 96 461.1 150.1 476.8 224H608C625.7 224 640 238.3 640 256C640 273.7 625.7 288 608 288H476.8zM320 336C364.2 336 400 300.2 400 256C400 211.8 364.2 176 320 176C275.8 176 240 211.8 240 256C240 300.2 275.8 336 320 336z"/>
</svg>
